X:1
T:Filioli, si quis peccaverit
T:Pierre de la Rue (?)
T:Source : Bicinia---Tomus II---Wittemberg---G.Rhau---1545. Editor : André Vierendeels (27/06/17).
T:Notes : Original clefs : C4, F4 Original note values have been halved Editorial accidentals above the staff Dotted brackets indicate black notes Signed P.R.   
T:Filioli, si quis peccaverit
T:©
T:©
T:©
T:©
C:Pierre de la Rue (?)
Z:©
%%score [ 1 2 ]
L:1/8
Q:1/4=120
M:2/2
K:C
V:1 treble-8 nm="Tenor" snm="T"
V:2 bass nm="Bass" snm="B"
V:1
 z8 | G4 A2 c2- | c2 B2 c3 B | A4 G4 | z2 A2 B2 d2- | d2 c2 d3 c | B4 A4 | z2 A4 A2 | c3 B G4 | %9
w: |Fi- * *|* li- o- *|* li,|si quis pec-|* ca- * *|ve- rit,|ad- vo-|ca- * tum|
 z2 B4 B2 | d3 c A3 B | c3 B G4 | z2 G2 A2 B2 | c2 A2 B2 c2 | d2 B2 c2 d2- | dA c4 B2 | c4 z2 c2 | %17
w: ha- be-|mus _ a- pud|pa- * trem,|Ie- sum Chri-|stum, iu- * *|stum est et i-|* * * pse|est, pro-|
 c2 B2 c2 A2 | G2 c2 B2 G2 | c2 B2 A4 | G8 | z2 G3 ABc | d3 c A2 c2- | cB G2 G3 A | B3 c d3 c | %25
w: pi- ti- a- ti-|o, pro- pi- ti-|a- * ti-|o,|pro _ _ _|_ _ pec- ca-|* * tis, to- *|* * * ti-|
 A3 B c3 B | A2 G2 F2 E2 | D2 G4 F2 | G4 z2 D2 | E2 F2 G2 E2 | F2 G2 A2 F2 | G2 A2 B2 G2 | %32
w: * us mun- *|||di, et|per hoc sci- mus|quod co- gno- vi-|mus, et per hoc|
 A2 B2 c2 A2 | B2 c2 dc c2- | c2 B2 c4 | A2 d3 cBA | G2 c3 BAG | FE D2 d3 c | BA B2 e3 d | %39
w: sci- mus quod co-|gno- vi- * * *|* * mus,|_ e- * * *||||
 cB A2 d3 c | BA G2 c3 B | AGFE D2 G2- |"^#" G2 F2 G4 | z2 D2 E2 F2 | G2 A2 B2 c2 | d2 c4 B2 | %46
w: |||* * um,|si man- da-|ta e- ius ob-|ser- va- *|
 c4 z2 c2 | c3 B A3 G | F3 E D4 | z2 d2 d3 c | B4 z2 e2 | e3 d c3 B | A4 z2 d2 | d3 c B2 A2 | %54
w: mus, ob-|ser- * * *|* va- mus,|ob- ser- va-|mus, ob|ser- * * va-|mus, ob-|ser- * * *|
 G2 F2 ED G2- |"^#" G2 F2 !fermata!G4 |] %56
w: * * * * va-|* * mus.|
V:2
 C,4 D,2 F,2- | F,2 E,2 F,3 E, | D,4 C,4 | z2 D,2 E,2 G,2- | G,2 F,2 G,3 F, | E,4 D,4 | %6
w: Fi- li- o-||* li,|si quis pec-|* * ca- *|* ve-|
 G,4 z2 D,2- | D,2 D,2 F,3 E, | C,4 z2 E,2- | E,2 E,2 G,3 F, | D,3 E, F,3 E, | C,4 z2 C,2 | %12
w: rit, ad-|* vo- ca- *|tum ha-|* be- mus a-|pud _ pa- *|trem Ie-|
 D,2 E,2 F,2 D,2 | E,2 F,2 G,2 E,2 | F,2 G,2 C,2 F,2- | F,2 E,2 D,4 | C,2 F,2 F,2 E,2 | %17
w: sum Chri- stum, iu-|stum et pse est|pro- pi- ti- a-|* * ti-|o, pro- pi- ti-|
 F,2 D,2 C,2 F,2 | E,2 C,2 D,2 E,2- |"^#" E,F, G,4 F,2 | G,4 z2 C,2- | C,D,E,F, G,3 F, | %22
w: a- ti- o, pro-|pi- ti- a- *|* * ti- *|o, pro|_ _ _ _ _ _|
 D,2 F,3 E, C,2- | C,D, E,3 F, G,2- | G,F, D,3 E, F,2- | F,E,C,D, E,F, G,2 | F,2 E,2 D,2 C,2 | %27
w: pec- ca- * tis|_ _ _ _ to-|* * ti- * *|us _ _ _ _ _ mun-||
 B,,2 G,,2 A,,4 | z2 G,,2 A,,2 B,,2 | C,2 A,,2 B,,2 C,2 | D,2 B,,2 C,2 D,2 | E,2 C,2 D,2 E,2 | %32
w: * * di,|et per hoc|sci- mus quod co-|gno- vi- * mus|e- um et per|
 F,2 D,2 E,2 F,2 | G,2 E,2 F,2 E,2 | D,4 C,2 F,2- | F,2 D,2 G,3 F, | E,D, C,2 F,3 E, | %37
w: hoc sci- mus quod|co- gno- vi- *|* mus e-|||
 D,C,B,,A,, G,,2 G,2- | G,F,E,D, E,2 A,2- | A,G,F,E, D,2 G,2- | G,F,E,D, C,2 F,2- | %41
w: ||||
 F,E,D,C, D,2 B,,2 | A,,4 z2 G,,2 | A,,2 B,,2 C,2 D,2 | E,2 F,2 G,2 E,2 | F,E,D,C, D,4 | C,8 | %47
w: |um, si|man- da- ta e-|* ius ob- ser-|va- * * * *|mus,|
 z2 F,2 F,3 E, | D,3 C, B,,3 A,, | G,,4 z2 G,2 | G,3 F, E,4 | z2 A,2 A,3 G, | F,3 E, D,4 | %53
w: ob- ser- *|va- * * *|mus ob-|ser- va- mus,|ob- ser- *|va- * mus,|
 z2 G,2 G,3 F, | E,2 D,2 C,2 B,,2 | A,,4 !fermata!G,,4 |] %56
w: ob- ser- *||va- mus.|

